assets/icons/country-flags/VI.svg

<svg width="24" height="24" viewBox="0 0 24 24" fill="none" xmlns="http://www.w3.org/2000/svg">
<g clip-path="url(#clip0_2848_9962)">
<path d="M12 23.9998C18.6274 23.9998 24 18.6272 24 11.9998C24 5.37234 18.6274 -0.000244141 12 -0.000244141C5.37259 -0.000244141 0 5.37234 0 11.9998C0 18.6272 5.37259 23.9998 12 23.9998Z" fill="white"/>
<path d="M14.0373 8.38349C14.0373 7.25793 13.1249 6.34546 11.9993 6.34546C10.8737 6.34546 9.96118 7.25793 9.96118 8.38349H5.47754C5.47754 9.49166 6.44288 10.3901 7.55106 10.3901H7.48431C7.48431 11.4984 8.38262 12.3969 9.49098 12.3969C9.49098 13.3781 10.1957 14.1935 11.1264 14.3677L11.1212 14.3795H12.8774L12.8722 14.3677C13.8029 14.1934 14.5076 13.3781 14.5076 12.3969C15.6159 12.3969 16.5143 11.4984 16.5143 10.3901H16.4474C17.5556 10.3901 18.521 9.49166 18.521 8.38349H14.0373Z" fill="#FFD293"/>
<path d="M11.1035 14.1721L9.83984 17.0251C10.5066 17.2961 11.2354 17.4468 11.9995 17.4468C12.7636 17.4468 13.4923 17.2962 14.159 17.0251L12.8954 14.1721H11.1035Z" fill="#FFD293"/>
<path d="M9.3916 9.38574V12.8963C9.3916 14.893 12.0003 15.5049 12.0003 15.5049C12.0003 15.5049 14.609 14.893 14.609 12.8963V9.38574H9.3916Z" fill="white"/>
<path d="M2.91024 12.0847L4.32113 16.0308L5.71735 12.0847H6.78292L4.74732 17.3021H3.8949L1.84473 12.0847H2.91024Z" fill="#338AF3"/>
<path d="M19.3057 17.3019V12.0845H20.3197V17.3019H19.3057Z" fill="#338AF3"/>
<path d="M10.4346 10.5195V14.7736C10.7932 15.0376 11.1791 15.2191 11.4781 15.3354V10.5195H10.4346Z" fill="#FF0062"/>
<path d="M13.565 10.5195V14.7736C13.2063 15.0376 12.8205 15.2191 12.5215 15.3354V10.5195H13.565Z" fill="#FF0062"/>
<path d="M9.3916 9.38574H14.609V11.0412H9.3916V9.38574Z" fill="#0052B4"/>
</g>
<defs>
<clipPath id="clip0_2848_9962">
<rect width="24" height="24" fill="white"/>
</clipPath>
</defs>
</svg>

<svg viewBox="0 0 24 24" fill="none" xmlns="http://www.w3.org/2000/svg"><g clip-path="url(#a)"><path d="M12 24c6.627 0 12-5.373 12-12 0-6.628-5.373-12-12-12S0 5.372 0 12c0 6.627 5.373 12 12 12Z" fill="#fff"/><path d="M14.037 8.383a2.038 2.038 0 1 0-4.076 0H5.478c0 1.109.965 2.007 2.073 2.007h-.067c0 1.108.899 2.007 2.007 2.007 0 .981.705 1.796 1.635 1.97l-.005.012h1.756l-.005-.011a2.006 2.006 0 0 0 1.636-1.971 2.007 2.007 0 0 0 2.006-2.007h-.067c1.109 0 2.074-.898 2.074-2.007h-4.484Z" fill="#FFD293"/><path d="M11.104 14.172 9.84 17.025a5.723 5.723 0 0 0 2.16.422 5.72 5.72 0 0 0 2.159-.422l-1.264-2.853h-1.791Z" fill="#FFD293"/><path d="M9.392 9.386v3.51c0 1.997 2.608 2.609 2.608 2.609s2.609-.612 2.609-2.609v-3.51H9.392Z" fill="#fff"/><path d="m2.91 12.085 1.411 3.946 1.396-3.946h1.066l-2.036 5.217h-.852l-2.05-5.217H2.91ZM19.306 17.302v-5.217h1.014v5.217h-1.014Z" fill="#338AF3"/><path d="M10.435 10.52v4.254a4.59 4.59 0 0 0 1.043.561V10.52h-1.043ZM13.565 10.52v4.254a4.593 4.593 0 0 1-1.043.561V10.52h1.043Z" fill="#FF0062"/><path d="M9.392 9.386h5.217v1.655H9.392V9.386Z" fill="#0052B4"/></g><defs><clipPath id="a"><rect fill="#fff"/></clipPath></defs></svg>
